;FLAVOR:Marlin
;TIME:208
;Filament used: 0.0776684m
;Layer height: 0.15
;MINX:102.174
;MINY:98.841
;MINZ:0.2
;MAXX:133.718
;MAXY:134.993
;MAXZ:1.7
;Generated with Cura_SteamEngine 4.1.0
M140 S65
M105
M190 S65
M104 S190
M105
M109 S190
M82 ;absolute extrusion mode
; Ender 3 Custom Start G-code
G28 ; Home all axes
G92 E0 ; Reset Extruder
G1 Z2.0 F3000 ; Move Z Axis up little to prevent scratching of Heat Bed
G1 X0.1 Y20 Z0.3 F5000.0 ; Move to start position
G1 X0.1 Y200.0 Z0.3 F1500.0 E15 ; Draw the first line
G1 X0.4 Y200.0 Z0.3 F5000.0 ; Move to side a little
G1 X0.4 Y20 Z0.3 F1500.0 E30 ; Draw the second line
G92 E0 ; Reset Extruder
G1 Z2.0 F3000 ; Move Z Axis up little to prevent scratching of Heat Bed
; End of custom start GCode
G92 E0
G92 E0
;LAYER_COUNT:11
;LAYER:0
M107
M204 S500
M205 X10 Y10
;MESH:con-std.stl
G0 F2400 X121.987 Y117.2 Z0.2
;TYPE:WALL-INNER
G1 F1200 X131.39 Y100.728 E0.63084
G1 X131.489 Y100.555 E0.63747
G1 X131.662 Y100.654 E0.64176
G1 X131.834 Y100.753 E0.64836
G1 X132.007 Y100.853 E0.65501
G1 X131.908 Y101.026 E0.66164
G1 X122.404 Y117.499 E1.29418
G1 X132.005 Y134.146 E1.93335
G1 X131.659 Y134.347 E1.94666
G1 X131.486 Y134.447 E1.9533
G1 X131.386 Y134.274 E1.95759
G1 X131.248 Y134.034 E1.9668
G1 X121.868 Y117.796 E2.59051
G1 X102.775 Y117.798 E3.22555
G1 X102.774 Y117.399 E3.23882
G1 X102.774 Y117.199 E3.24547
G1 X102.974 Y117.199 E3.24978
G1 X121.987 Y117.2 E3.88215
G0 F2400 X121.755 Y116.8
;TYPE:WALL-OUTER
G1 F1200 X131.242 Y100.181 E4.51863
G1 X131.341 Y100.008 E4.52526
G1 X131.514 Y100.107 E4.52954
G1 X132.38 Y100.607 E4.5628
G1 X132.553 Y100.706 E4.56943
G1 X132.454 Y100.879 E4.57372
G1 X122.866 Y117.499 E5.2119
G1 X132.551 Y134.292 E5.85667
G1 X131.513 Y134.893 E5.89656
G1 X131.34 Y134.993 E5.90321
G1 X131.24 Y134.82 E5.9075
G1 X130.902 Y134.234 E5.93
G1 X121.637 Y118.196 E6.54604
G1 X102.375 Y118.198 E7.18669
G1 X102.374 Y116.999 E7.22657
G1 X102.374 Y116.799 E7.23322
G1 X102.574 Y116.799 E7.23753
G1 X121.755 Y116.8 E7.87549
G0 F2400 X121.854 Y116.627
G0 X122.286 Y116.875
G0 X131.652 Y101.105
;TYPE:SKIN
G1 F1200 X131.48 Y100.933 E7.88358
G0 F2400 X131.274 Y101.293
G1 F1200 X131.446 Y101.464 E7.89165
G0 F2400 X131.239 Y101.823
G1 F1200 X131.068 Y101.652 E7.89969
G0 F2400 X130.862 Y102.012
G1 F1200 X131.031 Y102.181 E7.90764
G0 F2400 X130.825 Y102.541
G1 F1200 X130.657 Y102.373 E7.91555
G0 F2400 X130.452 Y102.733
G1 F1200 X130.618 Y102.899 E7.92335
G0 F2400 X130.41 Y103.258
G1 F1200 X130.246 Y103.093 E7.93109
G0 F2400 X130.041 Y103.453
G1 F1200 X130.204 Y103.617 E7.93878
G0 F2400 X129.997 Y103.975
G1 F1200 X129.835 Y103.813 E7.9464
G0 F2400 X129.629 Y104.173
G1 F1200 X129.79 Y104.334 E7.95397
G0 F2400 X129.582 Y104.692
G1 F1200 X129.423 Y104.533 E7.96145
G0 F2400 X129.218 Y104.894
G1 F1200 X129.376 Y105.052 E7.96889
G0 F2400 X129.169 Y105.41
G1 F1200 X129.013 Y105.254 E7.97622
G0 F2400 X128.807 Y105.614
G1 F1200 X128.962 Y105.769 E7.98351
G0 F2400 X128.602 Y105.974
G1 F1200 X128.755 Y106.128 E7.99073
G0 F2400 X128.548 Y106.486
G1 F1200 X128.396 Y106.334 E7.99788
G0 F2400 X128.19 Y106.694
G1 F1200 X128.341 Y106.845 E8.00499
G0 F2400 X127.984 Y107.054
G1 F1200 X128.134 Y107.204 E8.01204
G0 F2400 X127.779 Y107.415
G1 F1200 X127.927 Y107.562 E8.01898
G0 F2400 X127.574 Y107.775
G1 F1200 X127.72 Y107.921 E8.02585
G0 F2400 X127.368 Y108.135
G1 F1200 X127.513 Y108.28 E8.03267
G0 F2400 X127.162 Y108.494
G1 F1200 X127.306 Y108.639 E8.03946
G0 F2400 X126.957 Y108.855
G1 F1200 X127.099 Y108.997 E8.04614
G0 F2400 X126.751 Y109.215
G1 F1200 X126.893 Y109.356 E8.0528
G0 F2400 X126.545 Y109.575
G1 F1200 X126.685 Y109.715 E8.05938
G0 F2400 X126.34 Y109.936
G1 F1200 X126.478 Y110.073 E8.06585
G0 F2400 X126.135 Y110.295
G1 F1200 X126.272 Y110.433 E8.07232
G0 F2400 X125.929 Y110.655
G1 F1200 X126.065 Y110.791 E8.07872
G0 F2400 X125.723 Y111.015
G1 F1200 X125.857 Y111.15 E8.08504
G0 F2400 X125.518 Y111.376
G1 F1200 X125.651 Y111.509 E8.0913
G0 F2400 X125.312 Y111.736
G1 F1200 X125.444 Y111.867 E8.09748
G0 F2400 X125.106 Y112.096
G1 F1200 X125.237 Y112.226 E8.10362
G0 F2400 X124.901 Y112.456
G1 F1200 X125.03 Y112.585 E8.10969
G0 F2400 X124.696 Y112.816
G1 F1200 X124.823 Y112.944 E8.11569
G0 F2400 X124.49 Y113.176
G1 F1200 X124.616 Y113.302 E8.12161
G0 F2400 X124.284 Y113.536
G1 F1200 X124.409 Y113.661 E8.12749
G0 F2400 X124.079 Y113.897
G1 F1200 X124.202 Y114.02 E8.13328
G0 F2400 X123.873 Y114.257
G1 F1200 X123.995 Y114.378 E8.13899
G0 F2400 X123.668 Y114.617
G1 F1200 X123.788 Y114.737 E8.14464
G0 F2400 X123.462 Y114.976
G1 F1200 X123.581 Y115.096 E8.15026
G0 F2400 X123.257 Y115.337
G1 F1200 X123.374 Y115.454 E8.15576
G0 F2400 X123.051 Y115.697
G1 F1200 X123.167 Y115.813 E8.16122
G0 F2400 X122.845 Y116.057
G1 F1200 X122.96 Y116.172 E8.16663
G0 F2400 X122.639 Y116.417
G1 F1200 X122.753 Y116.531 E8.17199
G0 F2400 X122.434 Y116.777
G1 F1200 X122.546 Y116.889 E8.17726
G0 F2400 X122.229 Y117.137
G1 F1200 X122.34 Y117.248 E8.18248
G0 F2400 X121.905 Y117.38
G1 F1200 X122.428 Y117.902 E8.20706
G0 F2400 X122.513 Y118.553
G1 F1200 X123.199 Y119.24 E8.23935
G0 F2400 X123.287 Y119.893
G1 F1200 X123.97 Y120.576 E8.27147
G0 F2400 X124.061 Y121.232
G1 F1200 X124.741 Y121.912 E8.30346
G0 F2400 X124.834 Y122.572
G1 F1200 X125.512 Y123.249 E8.33533
G0 F2400 X125.608 Y123.911
G1 F1200 X126.283 Y124.586 E8.36708
G0 F2400 X126.381 Y125.25
G1 F1200 X127.054 Y125.922 E8.39871
G0 F2400 X127.155 Y126.589
G1 F1200 X127.825 Y127.259 E8.43022
G0 F2400 X127.929 Y127.929
G1 F1200 X128.596 Y128.596 E8.4616
G0 F2400 X128.703 Y129.269
G1 F1200 X129.367 Y129.932 E8.49281
G0 F2400 X129.476 Y130.608
G1 F1200 X130.138 Y131.269 E8.52392
G0 F2400 X130.25 Y131.947
G1 F1200 X130.908 Y132.605 E8.55487
G0 F2400 X131.024 Y133.286
G1 F1200 X131.68 Y133.942 E8.58573
G1 X131.75 Y134.012
G0 F2400 X121.887 Y117.762
G0 X121.576 Y117.616
G1 F1200 X121.34 Y117.38 E8.59683
G0 F2400 X121.01 Y117.616
G1 F1200 X120.774 Y117.38 E8.60793
G0 F2400 X120.445 Y117.616
G1 F1200 X120.208 Y117.38 E8.61905
G0 F2400 X119.879 Y117.616
G1 F1200 X119.643 Y117.38 E8.63015
G0 F2400 X119.313 Y117.616
G1 F1200 X119.077 Y117.38 E8.64126
G0 F2400 X118.747 Y117.616
G1 F1200 X118.511 Y117.38 E8.65236
G0 F2400 X118.182 Y117.616
G1 F1200 X117.946 Y117.38 E8.66346
G0 F2400 X117.616 Y117.616
G1 F1200 X117.38 Y117.38 E8.67456
G0 F2400 X117.05 Y117.616
G1 F1200 X116.814 Y117.38 E8.68566
G0 F2400 X116.485 Y117.616
G1 F1200 X116.249 Y117.38 E8.69676
G0 F2400 X115.919 Y117.616
G1 F1200 X115.682 Y117.379 E8.70791
G0 F2400 X115.353 Y117.616
G1 F1200 X115.116 Y117.379 E8.71905
G0 F2400 X114.788 Y117.616
G1 F1200 X114.551 Y117.379 E8.7302
G0 F2400 X114.222 Y117.616
G1 F1200 X113.985 Y117.379 E8.74135
G0 F2400 X113.656 Y117.616
G1 F1200 X113.419 Y117.379 E8.7525
G0 F2400 X113.091 Y117.616
G1 F1200 X112.854 Y117.379 E8.76365
G0 F2400 X112.525 Y117.616
G1 F1200 X112.288 Y117.379 E8.77479
G0 F2400 X111.959 Y117.616
G1 F1200 X111.722 Y117.379 E8.78594
G0 F2400 X111.394 Y117.616
G1 F1200 X111.157 Y117.379 E8.79709
G0 F2400 X110.828 Y117.616
G1 F1200 X110.591 Y117.379 E8.80824
G0 F2400 X110.262 Y117.616
G1 F1200 X110.025 Y117.379 E8.81938
G0 F2400 X109.697 Y117.616
G1 F1200 X109.46 Y117.379 E8.83053
G0 F2400 X109.131 Y117.616
G1 F1200 X108.893 Y117.379 E8.8417
G0 F2400 X108.565 Y117.616
G1 F1200 X108.328 Y117.379 E8.85285
G0 F2400 X107.999 Y117.616
G1 F1200 X107.762 Y117.379 E8.864
G0 F2400 X107.434 Y117.616
G1 F1200 X107.196 Y117.379 E8.87517
G0 F2400 X106.868 Y117.616
G1 F1200 X106.63 Y117.379 E8.88634
G0 F2400 X106.302 Y117.616
G1 F1200 X106.065 Y117.379 E8.89749
G0 F2400 X105.737 Y117.616
G1 F1200 X105.499 Y117.379 E8.90866
G0 F2400 X105.171 Y117.616
G1 F1200 X104.933 Y117.379 E8.91983
G0 F2400 X104.605 Y117.616
G1 F1200 X104.368 Y117.379 E8.93098
G0 F2400 X104.04 Y117.616
G1 F1200 X103.802 Y117.379 E8.94215
G0 F2400 X103.474 Y117.616
G1 F1200 X103.236 Y117.379 E8.95332
G0 F2400 X103.237 Y117.397
;MESH:NONMESH
G0 X122.037 Y117.286
G0 X121.987 Y117.2
;TIME_ELAPSED:24.332648
;LAYER:1
M140 S65
M106 S255
;MESH:con-std.stl
G0 F4800 X121.987 Y117.2 Z0.35
;TYPE:WALL-INNER
G1 F3000 X131.39 Y100.728 E9.42645
G1 X131.489 Y100.555 E9.43143
G1 X131.662 Y100.654 E9.43464
G1 X131.834 Y100.753 E9.43959
G1 X132.007 Y100.853 E9.44458
G1 X131.908 Y101.026 E9.44955
G1 X122.404 Y117.499 E9.92396
G1 X132.005 Y134.146 E10.40333
G1 X131.659 Y134.347 E10.41331
G1 X131.486 Y134.447 E10.4183
G1 X131.386 Y134.274 E10.42152
G1 X121.868 Y117.796 E10.89621
G1 X102.775 Y117.798 E11.37248
G1 X102.774 Y117.399 E11.38244
G1 X102.774 Y117.199 E11.38743
G1 X102.974 Y117.199 E11.39066
G1 X121.987 Y117.2 E11.86494
G0 F4800 X121.755 Y116.8
;TYPE:WALL-OUTER
G1 F1800 X131.242 Y100.181 E12.34229
G1 X131.341 Y100.008 E12.34726
G1 X131.514 Y100.107 E12.35048
G1 X132.38 Y100.607 E12.37543
G1 X132.553 Y100.706 E12.3804
G1 X132.454 Y100.879 E12.38361
G1 X122.866 Y117.499 E12.86224
G1 X132.551 Y134.292 E13.34582
G1 X131.513 Y134.893 E13.37574
G1 X131.34 Y134.993 E13.38073
G1 X131.24 Y134.82 E13.38395
G1 X121.637 Y118.196 E13.86285
G1 X102.375 Y118.198 E14.34334
G1 X102.374 Y116.999 E14.37325
G1 X102.374 Y116.799 E14.37824
G1 X102.574 Y116.799 E14.38147
G1 X121.755 Y116.8 E14.85994
G0 F4800 X121.854 Y116.627
G0 X122.286 Y116.875
G0 X103 Y117.617
;TYPE:SKIN
G1 F1500 X103.239 Y117.378 E14.86837
G0 F4800 X103.565 Y117.617
G1 F1500 X103.804 Y117.378 E14.87681
G0 F4800 X104.131 Y117.617
G1 F1500 X104.37 Y117.378 E14.88524
G0 F4800 X104.697 Y117.617
G1 F1500 X104.936 Y117.378 E14.89367
G0 F4800 X105.262 Y117.617
G1 F1500 X105.501 Y117.378 E14.9021
G0 F4800 X105.828 Y117.617
G1 F1500 X106.067 Y117.378 E14.91053
G0 F4800 X106.394 Y117.617
G1 F1500 X106.633 Y117.378 E14.91896
G0 F4800 X106.959 Y117.617
G1 F1500 X107.198 Y117.378 E14.92739
G0 F4800 X107.525 Y117.617
G1 F1500 X107.764 Y117.378 E14.93582
G0 F4800 X108.091 Y117.617
G1 F1500 X108.33 Y117.378 E14.94426
G0 F4800 X108.656 Y117.617
G1 F1500 X108.895 Y117.378 E14.95269
G0 F4800 X109.222 Y117.617
G1 F1500 X109.46 Y117.379 E14.96108
G0 F4800 X109.788 Y117.617
G1 F1500 X110.026 Y117.379 E14.96948
G0 F4800 X110.353 Y117.617
G1 F1500 X110.592 Y117.379 E14.97789
G0 F4800 X110.919 Y117.617
G1 F1500 X111.157 Y117.379 E14.98629
G0 F4800 X111.485 Y117.617
G1 F1500 X111.723 Y117.379 E14.99469
G0 F4800 X112.05 Y117.617
G1 F1500 X112.289 Y117.379 E15.0031
G0 F4800 X112.617 Y117.616
G1 F1500 X112.854 Y117.379 E15.01146
G0 F4800 X113.183 Y117.616
G1 F1500 X113.42 Y117.379 E15.01982
G0 F4800 X113.748 Y117.616
G1 F1500 X113.986 Y117.379 E15.0282
G0 F4800 X114.314 Y117.616
G1 F1500 X114.552 Y117.379 E15.03658
G0 F4800 X114.88 Y117.616
G1 F1500 X115.117 Y117.379 E15.04494
G0 F4800 X115.445 Y117.616
G1 F1500 X115.683 Y117.379 E15.05332
G0 F4800 X116.011 Y117.616
G1 F1500 X116.248 Y117.379 E15.06168
G0 F4800 X116.577 Y117.616
G1 F1500 X116.814 Y117.379 E15.07004
G0 F4800 X117.142 Y117.616
G1 F1500 X117.379 Y117.379 E15.0784
G0 F4800 X117.708 Y117.616
G1 F1500 X117.945 Y117.379 E15.08676
G0 F4800 X118.274 Y117.616
G1 F1500 X118.511 Y117.379 E15.09512
G0 F4800 X118.839 Y117.616
G1 F1500 X119.076 Y117.379 E15.10348
G0 F4800 X119.405 Y117.616
G1 F1500 X119.642 Y117.379 E15.11184
G0 F4800 X119.971 Y117.616
G1 F1500 X120.208 Y117.379 E15.1202
G0 F4800 X120.536 Y117.616
G1 F1500 X120.773 Y117.379 E15.12856
G0 F4800 X121.102 Y117.616
G1 F1500 X121.339 Y117.379 E15.13693
G0 F4800 X121.668 Y117.616
G1 F1500 X121.905 Y117.379 E15.14529
G0 F4800 X122.252 Y117.598
G1 F1500 X122.068 Y117.782 E15.15178
G0 F4800 X122.275 Y118.14
G1 F1500 X122.458 Y117.957 E15.15823
G0 F4800 X122.666 Y118.315
G1 F1500 X122.482 Y118.499 E15.16472
G0 F4800 X122.689 Y118.858
G1 F1500 X122.873 Y118.674 E15.17122
G0 F4800 X123.079 Y119.033
G1 F1500 X122.896 Y119.216 E15.17767
G0 F4800 X123.103 Y119.575
G1 F1500 X123.286 Y119.392 E15.18413
G0 F4800 X123.494 Y119.75
G1 F1500 X123.31 Y119.933 E15.1906
G0 F4800 X123.518 Y120.292
G1 F1500 X123.7 Y120.109 E15.19704
G0 F4800 X123.907 Y120.468
G1 F1500 X123.725 Y120.65 E15.20346
G0 F4800 X123.932 Y121.009
G1 F1500 X124.114 Y120.827 E15.20988
G0 F4800 X124.321 Y121.186
G1 F1500 X124.139 Y121.367 E15.21628
G0 F4800 X124.346 Y121.726
G1 F1500 X124.528 Y121.544 E15.2227
G0 F4800 X124.735 Y121.903
G1 F1500 X124.554 Y122.084 E15.22909
G0 F4800 X124.761 Y122.443
G1 F1500 X124.942 Y122.262 E15.23547
G0 F4800 X125.149 Y122.62
G1 F1500 X124.967 Y122.802 E15.24189
G0 F4800 X125.174 Y123.161
G1 F1500 X125.355 Y122.98 E15.24828
G0 F4800 X125.563 Y123.338
G1 F1500 X125.382 Y123.519 E15.25466
G0 F4800 X125.589 Y123.878
G1 F1500 X125.77 Y123.697 E15.26105
G0 F4800 X125.976 Y124.056
G1 F1500 X125.796 Y124.236 E15.2674
G0 F4800 X126.003 Y124.595
G1 F1500 X126.183 Y124.414 E15.27377
G0 F4800 X126.39 Y124.773
G1 F1500 X126.21 Y124.953 E15.28012
G0 F4800 X126.417 Y125.312
G1 F1500 X126.597 Y125.132 E15.28647
G0 F4800 X126.804 Y125.49
G1 F1500 X126.625 Y125.67 E15.2928
G0 F4800 X126.832 Y126.029
G1 F1500 X127.011 Y125.85 E15.29911
G0 F4800 X127.218 Y126.208
G1 F1500 X127.039 Y126.387 E15.30543
G0 F4800 X127.246 Y126.746
G1 F1500 X127.425 Y126.567 E15.31174
G0 F4800 X127.632 Y126.926
G1 F1500 X127.453 Y127.105 E15.31806
G0 F4800 X127.66 Y127.463
G1 F1500 X127.839 Y127.284 E15.32437
G0 F4800 X128.046 Y127.643
G1 F1500 X127.867 Y127.822 E15.33069
G0 F4800 X128.074 Y128.18
G1 F1500 X128.252 Y128.002 E15.33697
G0 F4800 X128.46 Y128.361
G1 F1500 X128.281 Y128.539 E15.34326
G0 F4800 X128.489 Y128.897
G1 F1500 X128.666 Y128.72 E15.34951
G0 F4800 X128.873 Y129.078
G1 F1500 X128.696 Y129.256 E15.35577
G0 F4800 X128.903 Y129.614
G1 F1500 X129.08 Y129.437 E15.36201
G0 F4800 X129.287 Y129.796
G1 F1500 X129.11 Y129.973 E15.36826
G0 F4800 X129.317 Y130.331
G1 F1500 X129.494 Y130.155 E15.37449
G0 F4800 X129.701 Y130.513
G1 F1500 X129.524 Y130.69 E15.38073
G0 F4800 X129.732 Y131.048
G1 F1500 X129.908 Y130.872 E15.38694
G0 F4800 X130.115 Y131.231
G1 F1500 X129.938 Y131.408 E15.39318
G0 F4800 X130.145 Y131.766
G1 F1500 X130.322 Y131.589 E15.39943
G0 F4800 X130.529 Y131.948
G1 F1500 X130.353 Y132.125 E15.40565
G0 F4800 X130.56 Y132.483
G1 F1500 X130.736 Y132.307 E15.41186
G0 F4800 X130.943 Y132.665
G1 F1500 X130.767 Y132.842 E15.41809
G0 F4800 X130.974 Y133.2
G1 F1500 X131.149 Y133.025 E15.42426
G0 F4800 X131.357 Y133.383
G1 F1500 X131.181 Y133.559 E15.43047
G0 F4800 X131.388 Y133.917
G1 F1500 X131.563 Y133.742 E15.43664
G0 F4800 X122.364 Y117.499
G0 X122.34 Y116.944
G1 F1500 X122.752 Y116.532 E15.45118
G0 F4800 X123.092 Y115.626
G1 F1500 X123.523 Y115.195 E15.46638
G0 F4800 X123.844 Y114.308
G1 F1500 X124.294 Y113.859 E15.48224
G0 F4800 X124.597 Y112.99
G1 F1500 X125.065 Y112.521 E15.49877
G0 F4800 X125.349 Y111.672
G1 F1500 X125.837 Y111.184 E15.51598
G0 F4800 X126.102 Y110.353
G1 F1500 X126.608 Y109.847 E15.53383
G0 F4800 X126.854 Y109.035
G1 F1500 X127.38 Y108.51 E15.55237
G0 F4800 X127.607 Y107.717
G1 F1500 X128.151 Y107.173 E15.57156
G0 F4800 X128.359 Y106.399
G1 F1500 X128.923 Y105.836 E15.59144
G0 F4800 X129.112 Y105.081
G1 F1500 X129.694 Y104.499 E15.61198
G0 F4800 X129.865 Y103.762
G1 F1500 X130.466 Y103.161 E15.63318
G0 F4800 X130.617 Y102.444
G1 F1500 X131.236 Y101.825 E15.65501
G0 F4800 X131.369 Y101.126
G1 F1500 X131.644 Y100.851 E15.66472
G0 F4800 X131.637 Y101.102
;MESH:NONMESH
G0 X122.037 Y117.286
G0 X121.987 Y117.2
;TIME_ELAPSED:39.641546
;LAYER:2
;MESH:con-std.stl
G0 F7200 X121.987 Y117.2 Z0.5
;TYPE:WALL-INNER
G1 F4800 X131.39 Y100.728 E16.13785
G1 X131.489 Y100.555 E16.14282
G1 X131.662 Y100.654 E16.14604
G1 X131.834 Y100.753 E16.15099
G1 X132.007 Y100.853 E16.15597
G1 X131.908 Y101.026 E16.16094
G1 X122.404 Y117.499 E16.63535
G1 X132.005 Y134.146 E17.11473
G1 X131.659 Y134.347 E17.12471
G1 X131.486 Y134.447 E17.12969
G1 X131.386 Y134.274 E17.13291
G1 X121.868 Y117.796 E17.6076
G1 X102.775 Y117.798 E18.08388
G1 X102.774 Y117.399 E18.09383
G1 X102.774 Y117.199 E18.09882
G1 X102.974 Y117.199 E18.10205
G1 X121.987 Y117.2 E18.57633
G0 F7200 X121.755 Y116.8
;TYPE:WALL-OUTER
G1 F2400 X131.242 Y100.181 E19.05368
G1 X131.341 Y100.008 E19.05866
G1 X131.514 Y100.107 E19.06187
G1 X132.38 Y100.607 E19.08682
