;FLAVOR:Marlin
;TIME:221
;Filament used: 0.0967726m
;Layer height: 0.15
;MINX:101.25
;MINY:100.008
;MINZ:0.2
;MAXX:133.75
;MAXY:134.993
;MAXZ:1.85
;Generated with Cura_SteamEngine 4.1.0
M140 S65
M105
M190 S65
M104 S190
M105
M109 S190
M82 ;absolute extrusion mode
; Ender 3 Custom Start G-code
G28 ; Home all axes
G92 E0 ; Reset Extruder
G1 Z2.0 F3000 ; Move Z Axis up little to prevent scratching of Heat Bed
G1 X0.1 Y20 Z0.3 F5000.0 ; Move to start position
G1 X0.1 Y200.0 Z0.3 F1500.0 E15 ; Draw the first line
G1 X0.4 Y200.0 Z0.3 F5000.0 ; Move to side a little
G1 X0.4 Y20 Z0.3 F1500.0 E30 ; Draw the second line
G92 E0 ; Reset Extruder
G1 Z2.0 F3000 ; Move Z Axis up little to prevent scratching of Heat Bed
; End of custom start GCode
G92 E0
G92 E0
;LAYER_COUNT:12
;LAYER:0
M107
M204 S500
M205 X10 Y10
;MESH:con-int.stl
G0 F2400 X121.431 Y117.756 Z0.2
;TYPE:WALL-INNER
G1 F1200 X122.021 Y118.786 E0.03948
G1 X130.881 Y134.146 E0.62925
G1 X130.535 Y134.347 E0.64256
G1 X130.362 Y134.447 E0.64921
G1 X130.262 Y134.274 E0.6535
G1 X120.745 Y117.796 E1.2864
G1 X101.651 Y117.798 E1.92147
G1 X101.65 Y117.399 E1.93474
G1 X101.65 Y117.199 E1.9414
G1 X101.85 Y117.199 E1.9457
G1 X120.863 Y117.2 E2.57808
G1 X130.266 Y100.728 E3.20892
G1 X130.365 Y100.555 E3.21555
G1 X130.538 Y100.654 E3.21984
G1 X130.71 Y100.753 E3.22644
G1 X130.883 Y100.853 E3.23308
G1 X130.784 Y101.026 E3.23971
G1 X121.286 Y117.489 E3.87187
G1 X121.437 Y117.756 E3.88207
G1 X121.431 Y117.756 E3.88227
G0 F2400 X121.345 Y117.706
G0 X123.095 Y117.743
G0 X123.085 Y117.552
G1 F1200 X123.094 Y117.175 E3.89481
G1 X133.35 Y117.175 E4.23593
G1 X133.35 Y117.756 E4.25525
G1 X123.285 Y117.756 E4.59002
G1 X123.284 Y117.756 E4.59005
G1 X123.081 Y117.756 E4.5968
G1 X123.084 Y117.553 E4.60115
G1 X123.085 Y117.552 E4.6012
G0 F2400 X122.676 Y117.952
;TYPE:WALL-OUTER
G1 F1200 X122.702 Y116.775 E4.64035
G1 X133.75 Y116.775 E5.00781
G1 X133.75 Y118.156 E5.05374
G1 X122.876 Y118.156 E5.41542
G1 X122.875 Y118.156 E5.41545
G1 X122.672 Y118.156 E5.4222
G1 X122.675 Y117.953 E5.42655
G1 X122.676 Y117.952 E5.4266
G0 F2400 X122.68 Y117.752
G0 X122.121 Y118.156
G1 F1200 X122.368 Y118.587 E5.44312
G1 X131.427 Y134.292 E6.04614
G1 X130.389 Y134.893 E6.08603
G1 X130.216 Y134.993 E6.09268
G1 X130.116 Y134.82 E6.09697
G1 X120.514 Y118.196 E6.73549
G1 X101.251 Y118.198 E7.37618
G1 X101.25 Y116.999 E7.41606
G1 X101.25 Y116.799 E7.42271
G1 X101.45 Y116.799 E7.42702
G1 X120.631 Y116.8 E8.06498
G1 X130.118 Y100.181 E8.70146
G1 X130.217 Y100.008 E8.70809
G1 X130.39 Y100.107 E8.71237
G1 X131.256 Y100.607 E8.74563
G1 X131.429 Y100.706 E8.75226
G1 X131.33 Y100.879 E8.75655
G1 X121.747 Y117.491 E9.39441
G1 X122.124 Y118.156 E9.41984
G1 X122.121 Y118.156 E9.41994
G0 F2400 X122.22 Y118.329
G0 X121.786 Y118.576
G0 X121.246 Y117.489
G0 X130.526 Y101.11
;TYPE:SKIN
G1 F1200 X130.353 Y100.937 E9.42808
G0 F2400 X130.147 Y101.297
G1 F1200 X130.319 Y101.469 E9.43617
G0 F2400 X130.111 Y101.827
G1 F1200 X129.942 Y101.657 E9.44414
G0 F2400 X129.736 Y102.017
G1 F1200 X129.905 Y102.186 E9.45209
G0 F2400 X129.698 Y102.545
G1 F1200 X129.53 Y102.377 E9.45999
G0 F2400 X129.324 Y102.737
G1 F1200 X129.491 Y102.903 E9.46782
G0 F2400 X129.284 Y103.263
G1 F1200 X129.119 Y103.098 E9.47558
G0 F2400 X128.914 Y103.458
G1 F1200 X129.077 Y103.621 E9.48325
G0 F2400 X128.87 Y103.98
G1 F1200 X128.708 Y103.818 E9.49087
G0 F2400 X128.503 Y104.178
G1 F1200 X128.663 Y104.339 E9.49842
G0 F2400 X128.456 Y104.697
G1 F1200 X128.297 Y104.538 E9.5059
G0 F2400 X128.091 Y104.898
G1 F1200 X128.25 Y105.056 E9.51335
G0 F2400 X128.042 Y105.415
G1 F1200 X127.885 Y105.258 E9.52074
G0 F2400 X127.68 Y105.619
G1 F1200 X127.835 Y105.773 E9.52801
G0 F2400 X127.475 Y105.979
G1 F1200 X127.629 Y106.133 E9.53525
G0 F2400 X127.422 Y106.491
G1 F1200 X127.269 Y106.338 E9.54245
G0 F2400 X127.064 Y106.699
G1 F1200 X127.214 Y106.85 E9.54952
G0 F2400 X126.858 Y107.059
G1 F1200 X127.008 Y107.209 E9.55658
G0 F2400 X126.652 Y107.419
G1 F1200 X126.801 Y107.567 E9.56357
G0 F2400 X126.446 Y107.779
G1 F1200 X126.594 Y107.926 E9.5705
G0 F2400 X126.241 Y108.139
G1 F1200 X126.387 Y108.285 E9.57737
G0 F2400 X126.036 Y108.499
G1 F1200 X126.18 Y108.644 E9.58417
G0 F2400 X125.83 Y108.859
G1 F1200 X125.973 Y109.002 E9.59089
G0 F2400 X125.624 Y109.219
G1 F1200 X125.766 Y109.361 E9.59757
G0 F2400 X125.419 Y109.58
G1 F1200 X125.559 Y109.72 E9.60416
G0 F2400 X125.213 Y109.94
G1 F1200 X125.352 Y110.078 E9.61067
G0 F2400 X125.007 Y110.3
G1 F1200 X125.145 Y110.438 E9.61716
G0 F2400 X124.802 Y110.66
G1 F1200 X124.938 Y110.796 E9.62356
G0 F2400 X124.597 Y111.02
G1 F1200 X124.731 Y111.155 E9.62989
G0 F2400 X124.391 Y111.38
G1 F1200 X124.525 Y111.514 E9.63619
G0 F2400 X124.185 Y111.74
G1 F1200 X124.317 Y111.872 E9.6424
G0 F2400 X123.98 Y112.101
G1 F1200 X124.111 Y112.231 E9.64854
G0 F2400 X123.774 Y112.461
G1 F1200 X123.904 Y112.59 E9.65463
G0 F2400 X123.569 Y112.821
G1 F1200 X123.697 Y112.948 E9.66063
G0 F2400 X123.363 Y113.181
G1 F1200 X123.49 Y113.308 E9.6666
G0 F2400 X123.158 Y113.541
G1 F1200 X123.283 Y113.666 E9.67248
G0 F2400 X122.952 Y113.901
G1 F1200 X123.076 Y114.025 E9.67831
G0 F2400 X122.746 Y114.261
G1 F1200 X122.869 Y114.384 E9.6841
G0 F2400 X122.541 Y114.622
G1 F1200 X122.662 Y114.742 E9.68977
G0 F2400 X122.335 Y114.981
G1 F1200 X122.455 Y115.101 E9.69541
G0 F2400 X122.13 Y115.341
G1 F1200 X122.248 Y115.46 E9.70098
G0 F2400 X121.925 Y115.702
G1 F1200 X122.041 Y115.819 E9.70646
G0 F2400 X121.719 Y116.062
G1 F1200 X121.834 Y116.177 E9.71187
G0 F2400 X121.513 Y116.422
G1 F1200 X121.628 Y116.536 E9.71726
G0 F2400 X121.307 Y116.782
G1 F1200 X121.42 Y116.895 E9.72257
G0 F2400 X121.102 Y117.142
G1 F1200 X121.213 Y117.253 E9.7278
G0 F2400 X120.773 Y117.379
G1 F1200 X121.319 Y117.924 E9.75345
G0 F2400 X121.401 Y118.573
G1 F1200 X122.081 Y119.253 E9.78544
G0 F2400 X122.175 Y119.912
G1 F1200 X122.853 Y120.59 E9.81733
G0 F2400 X122.948 Y121.251
G1 F1200 X123.624 Y121.927 E9.84913
G0 F2400 X123.722 Y122.591
G1 F1200 X124.396 Y123.264 E9.88081
G0 F2400 X124.496 Y123.93
G1 F1200 X125.167 Y124.602 E9.91239
G0 F2400 X125.269 Y125.269
G1 F1200 X125.939 Y125.939 E9.94391
G0 F2400 X126.043 Y126.608
G1 F1200 X126.71 Y127.276 E9.9753
G0 F2400 X126.816 Y127.948
G1 F1200 X127.482 Y128.613 E10.00661
G0 F2400 X127.59 Y129.287
G1 F1200 X128.253 Y129.95 E10.03779
G0 F2400 X128.363 Y130.626
G1 F1200 X129.025 Y131.287 E10.06891
G0 F2400 X129.137 Y131.965
G1 F1200 X129.796 Y132.624 E10.0999
G0 F2400 X129.911 Y133.305
G1 F1200 X130.567 Y133.962 E10.13078
G1 X130.637 Y134.032
G0 F2400 X120.764 Y117.762
G0 X120.444 Y117.615
G1 F1200 X120.208 Y117.379 E10.14188
G0 F2400 X119.878 Y117.615
G1 F1200 X119.642 Y117.379 E10.15299
G0 F2400 X119.312 Y117.615
G1 F1200 X119.076 Y117.379 E10.16409
G0 F2400 X118.747 Y117.615
G1 F1200 X118.511 Y117.379 E10.17519
G0 F2400 X118.181 Y117.615
G1 F1200 X117.945 Y117.379 E10.18629
G0 F2400 X117.615 Y117.615
G1 F1200 X117.379 Y117.379 E10.19739
G0 F2400 X117.05 Y117.615
G1 F1200 X116.814 Y117.379 E10.20849
G0 F2400 X116.484 Y117.615
G1 F1200 X116.248 Y117.379 E10.21959
G0 F2400 X115.918 Y117.615
G1 F1200 X115.682 Y117.379 E10.23069
G0 F2400 X115.353 Y117.615
G1 F1200 X115.116 Y117.379 E10.24181
G0 F2400 X114.787 Y117.615
G1 F1200 X114.551 Y117.379 E10.25292
G0 F2400 X114.221 Y117.615
G1 F1200 X113.985 Y117.379 E10.26402
G0 F2400 X113.656 Y117.615
G1 F1200 X113.419 Y117.379 E10.27514
G0 F2400 X113.09 Y117.615
G1 F1200 X112.854 Y117.379 E10.28624
G0 F2400 X112.524 Y117.615
G1 F1200 X112.288 Y117.379 E10.29734
G0 F2400 X111.959 Y117.615
G1 F1200 X111.722 Y117.379 E10.30847
G0 F2400 X111.393 Y117.615
G1 F1200 X111.156 Y117.379 E10.31959
G0 F2400 X110.828 Y117.616
G1 F1200 X110.59 Y117.379 E10.33076
G0 F2400 X110.262 Y117.616
G1 F1200 X110.025 Y117.379 E10.34191
G0 F2400 X109.697 Y117.616
G1 F1200 X109.459 Y117.379 E10.35308
G0 F2400 X109.131 Y117.616
G1 F1200 X108.893 Y117.379 E10.36425
G0 F2400 X108.565 Y117.616
G1 F1200 X108.328 Y117.379 E10.3754
G0 F2400 X107.999 Y117.616
G1 F1200 X107.762 Y117.379 E10.38655
G0 F2400 X107.434 Y117.616
G1 F1200 X107.196 Y117.379 E10.39772
G0 F2400 X106.868 Y117.616
G1 F1200 X106.63 Y117.379 E10.40889
G0 F2400 X106.302 Y117.616
G1 F1200 X106.065 Y117.379 E10.42004
G0 F2400 X105.737 Y117.616
G1 F1200 X105.499 Y117.379 E10.43121
G0 F2400 X105.171 Y117.616
G1 F1200 X104.933 Y117.379 E10.44238
G0 F2400 X104.605 Y117.616
G1 F1200 X104.368 Y117.379 E10.45353
G0 F2400 X104.04 Y117.616
G1 F1200 X103.802 Y117.379 E10.4647
G0 F2400 X103.474 Y117.616
G1 F1200 X103.236 Y117.379 E10.47587
G0 F2400 X102.908 Y117.616
G1 F1200 X102.671 Y117.379 E10.48702
G0 F2400 X102.343 Y117.616
G1 F1200 X102.105 Y117.379 E10.49819
G0 F2400 X121.414 Y117.766
G0 X123.095 Y117.743
G0 X123.577 Y117.354
G1 F1200 X123.798 Y117.576 E10.50861
G0 F2400 X124.143 Y117.354
G1 F1200 X124.364 Y117.576 E10.51903
G0 F2400 X124.708 Y117.354
G1 F1200 X124.93 Y117.576 E10.52947
G0 F2400 X125.274 Y117.354
G1 F1200 X125.495 Y117.576 E10.53989
G0 F2400 X125.84 Y117.354
G1 F1200 X126.061 Y117.576 E10.55031
G0 F2400 X126.405 Y117.354
G1 F1200 X126.627 Y117.576 E10.56075
G0 F2400 X126.971 Y117.354
G1 F1200 X127.192 Y117.576 E10.57117
G0 F2400 X127.537 Y117.354
G1 F1200 X127.758 Y117.576 E10.58159
G0 F2400 X128.103 Y117.354
G1 F1200 X128.324 Y117.576 E10.59201
G0 F2400 X128.668 Y117.354
G1 F1200 X128.89 Y117.576 E10.60245
G0 F2400 X129.234 Y117.354
G1 F1200 X129.455 Y117.576 E10.61287
G0 F2400 X129.8 Y117.354
G1 F1200 X130.021 Y117.576 E10.62328
G0 F2400 X130.365 Y117.354
G1 F1200 X130.587 Y117.576 E10.63373
G0 F2400 X130.931 Y117.354
G1 F1200 X131.152 Y117.576 E10.64415
G0 F2400 X131.497 Y117.354
G1 F1200 X131.718 Y117.576 E10.65456
G0 F2400 X132.062 Y117.354
G1 F1200 X132.284 Y117.576 E10.66501
G0 F2400 X132.628 Y117.354
G1 F1200 X132.849 Y117.576 E10.67543
G0 F2400 X132.849 Y117.575
;MESH:NONMESH
G0 X123.11 Y117.335
G0 X121.808 Y116.584
G0 X120.913 Y117.286
G0 X120.863 Y117.2
;TIME_ELAPSED:28.701112
;LAYER:1
M140 S65
M106 S255
;MESH:con-int.stl
G0 F4800 X120.863 Y117.2 Z0.35
;TYPE:WALL-INNER
G1 F3000 X130.266 Y100.728 E11.14856
G1 X130.365 Y100.555 E11.15353
G1 X130.538 Y100.654 E11.15675
G1 X130.71 Y100.753 E11.1617
G1 X130.883 Y100.853 E11.16668
G1 X130.784 Y101.026 E11.17165
G1 X121.299 Y117.468 E11.64515
G1 X121.697 Y118.222 E11.66642
G1 X121.775 Y118.356 E11.67029
G1 X130.881 Y134.146 E12.12498
G1 X130.535 Y134.347 E12.13496
G1 X130.362 Y134.447 E12.13994
G1 X130.262 Y134.274 E12.14316
G1 X120.745 Y117.796 E12.61784
G1 X101.651 Y117.798 E13.09414
G1 X101.65 Y117.399 E13.10409
G1 X101.65 Y117.199 E13.10908
G1 X101.85 Y117.199 E13.11231
G1 X120.863 Y117.2 E13.58659
G0 F4800 X120.913 Y117.286
G0 X121.68 Y118.231
G0 X123.095 Y117.743
G0 X123.085 Y117.552
G1 F3000 X123.093 Y117.175 E13.596
G1 X133.35 Y117.175 E13.85186
G1 X133.35 Y117.756 E13.86636
G1 X123.285 Y117.756 E14.11743
G1 X123.284 Y117.756 E14.11745
G1 X123.081 Y117.756 E14.12252
G1 X123.084 Y117.553 E14.12578
G1 X123.085 Y117.552 E14.12581
G0 F4800 X122.676 Y117.952
;TYPE:WALL-OUTER
G1 F1800 X122.701 Y116.775 E14.15518
G1 X133.75 Y116.775 E14.4308
G1 X133.75 Y118.156 E14.46525
G1 X122.876 Y118.156 E14.7365
G1 X122.875 Y118.156 E14.73653
G1 X122.672 Y118.156 E14.74159
G1 X122.675 Y117.953 E14.74485
G1 X122.676 Y117.952 E14.74489
G0 F4800 X122.68 Y117.752
G0 X123.152 Y117.687
G0 X121.787 Y116.584
G0 X120.974 Y117.169
G0 X120.631 Y116.8
G1 F1800 X130.118 Y100.181 E15.22224
G1 X130.217 Y100.008 E15.22721
G1 X130.39 Y100.107 E15.23043
G1 X131.256 Y100.607 E15.25538
G1 X131.429 Y100.706 E15.26035
G1 X131.33 Y100.879 E15.26357
G1 X121.756 Y117.477 E15.74155
G1 X122.047 Y118.028 E15.75709
G1 X122.121 Y118.156 E15.76078
G1 X131.427 Y134.292 E16.22543
G1 X130.389 Y134.893 E16.25535
G1 X130.216 Y134.993 E16.26034
G1 X130.116 Y134.82 E16.26356
G1 X120.514 Y118.196 E16.74245
G1 X101.251 Y118.198 E17.22297
G1 X101.25 Y116.999 E17.25288
G1 X101.25 Y116.799 E17.25786
G1 X101.45 Y116.799 E17.2611
G1 X120.631 Y116.8 E17.73957
G0 F4800 X120.73 Y116.627
G0 X121.162 Y116.875
G0 X101.868 Y117.617
;TYPE:SKIN
G1 F1500 X102.107 Y117.378 E17.748
G0 F4800 X102.434 Y117.617
G1 F1500 X102.673 Y117.378 E17.75643
G0 F4800 X103 Y117.617
G1 F1500 X103.239 Y117.378 E17.76486
G0 F4800 X103.565 Y117.617
G1 F1500 X103.804 Y117.378 E17.77329
G0 F4800 X104.131 Y117.617
G1 F1500 X104.37 Y117.378 E17.78172
G0 F4800 X104.697 Y117.617
G1 F1500 X104.936 Y117.378 E17.79016
G0 F4800 X105.262 Y117.617
G1 F1500 X105.501 Y117.378 E17.79859
G0 F4800 X105.828 Y117.617
G1 F1500 X106.067 Y117.378 E17.80702
G0 F4800 X106.394 Y117.617
G1 F1500 X106.633 Y117.378 E17.81545
G0 F4800 X106.959 Y117.617
G1 F1500 X107.198 Y117.378 E17.82388
G0 F4800 X107.525 Y117.617
G1 F1500 X107.764 Y117.378 E17.83231
G0 F4800 X108.091 Y117.617
G1 F1500 X108.33 Y117.378 E17.84074
G0 F4800 X108.656 Y117.617
G1 F1500 X108.895 Y117.378 E17.84918
G0 F4800 X109.222 Y117.617
G1 F1500 X109.461 Y117.378 E17.85761
G0 F4800 X109.788 Y117.617
G1 F1500 X110.027 Y117.378 E17.86604
G0 F4800 X110.353 Y117.617
G1 F1500 X110.592 Y117.378 E17.87447
G0 F4800 X110.919 Y117.617
G1 F1500 X111.158 Y117.378 E17.8829
G0 F4800 X111.485 Y117.616
G1 F1500 X111.723 Y117.379 E17.89128
G0 F4800 X112.051 Y117.616
G1 F1500 X112.289 Y117.379 E17.89966
G0 F4800 X112.617 Y117.616
G1 F1500 X112.854 Y117.379 E17.90802
G0 F4800 X113.183 Y117.616
G1 F1500 X113.42 Y117.379 E17.91638
G0 F4800 X113.748 Y117.616
G1 F1500 X113.986 Y117.379 E17.92476
G0 F4800 X114.314 Y117.616
G1 F1500 X114.552 Y117.379 E17.93314
G0 F4800 X114.88 Y117.616
G1 F1500 X115.117 Y117.379 E17.9415
G0 F4800 X115.445 Y117.616
G1 F1500 X115.683 Y117.379 E17.94988
G0 F4800 X116.011 Y117.616
G1 F1500 X116.249 Y117.379 E17.95825
G0 F4800 X116.577 Y117.616
G1 F1500 X116.814 Y117.379 E17.96661
G0 F4800 X117.142 Y117.616
G1 F1500 X117.38 Y117.379 E17.97499
G0 F4800 X117.708 Y117.616
G1 F1500 X117.946 Y117.379 E17.98337
G0 F4800 X118.274 Y117.616
G1 F1500 X118.511 Y117.379 E17.99173
G0 F4800 X118.839 Y117.616
G1 F1500 X119.077 Y117.379 E18.00011
G0 F4800 X119.405 Y117.616
G1 F1500 X119.643 Y117.379 E18.00849
G0 F4800 X119.971 Y117.616
G1 F1500 X120.208 Y117.379 E18.01685
G0 F4800 X120.536 Y117.616
G1 F1500 X120.774 Y117.379 E18.02523
G0 F4800 X121.148 Y117.57
G1 F1500 X120.942 Y117.777 E18.03251
G0 F4800 X121.149 Y118.135
G1 F1500 X121.343 Y117.941 E18.03936
G0 F4800 X121.538 Y118.311
G1 F1500 X121.356 Y118.494 E18.0458
G0 F4800 X121.563 Y118.852
G1 F1500 X121.746 Y118.67 E18.05223
G0 F4800 X121.953 Y119.028
G1 F1500 X121.77 Y119.211 E18.05869
G0 F4800 X121.978 Y119.569
G1 F1500 X122.159 Y119.387 E18.06509
G0 F4800 X122.366 Y119.746
G1 F1500 X122.185 Y119.928 E18.0715
G0 F4800 X122.392 Y120.286
G1 F1500 X122.574 Y120.104 E18.07792
G0 F4800 X122.78 Y120.464
G1 F1500 X122.599 Y120.645 E18.0843
G0 F4800 X122.806 Y121.004
G1 F1500 X122.987 Y120.822 E18.0907
G0 F4800 X123.194 Y121.181
G1 F1500 X123.013 Y121.362 E18.09709
G0 F4800 X123.22 Y121.721
G1 F1500 X123.401 Y121.54 E18.10347
G0 F4800 X123.608 Y121.898
G1 F1500 X123.427 Y122.079 E18.10986
G0 F4800 X123.634 Y122.438
G1 F1500 X123.815 Y122.257 E18.11625
G0 F4800 X124.022 Y122.616
G1 F1500 X123.841 Y122.796 E18.12261
G0 F4800 X124.049 Y123.155
G1 F1500 X124.229 Y122.975 E18.12896
G0 F4800 X124.436 Y123.333
G1 F1500 X124.256 Y123.513 E18.13531
G0 F4800 X124.463 Y123.872
G1 F1500 X124.643 Y123.692 E18.14166
G0 F4800 X124.85 Y124.051
G1 F1500 X124.67 Y124.23 E18.148
G0 F4800 X124.877 Y124.589
G1 F1500 X125.056 Y124.41 E18.15431
G0 F4800 X125.263 Y124.768
G1 F1500 X125.084 Y124.948 E18.16064
G0 F4800 X125.291 Y125.307
G1 F1500 X125.471 Y125.127 E18.16699
G0 F4800 X125.677 Y125.486
G1 F1500 X125.498 Y125.665 E18.17331
G0 F4800 X125.705 Y126.024
G1 F1500 X125.884 Y125.845 E18.17962
G0 F4800 X126.091 Y126.203
G1 F1500 X125.913 Y126.382 E18.18592
G0 F4800 X126.12 Y126.741
G1 F1500 X126.298 Y126.562 E18.19222
G0 F4800 X126.505 Y126.921
G1 F1500 X126.327 Y127.099 E18.1985
G0 F4800 X126.534 Y127.458
G1 F1500 X126.712 Y127.279 E18.20479
G0 F4800 X126.919 Y127.639
G1 F1500 X126.741 Y127.816 E18.21105
G0 F4800 X126.949 Y128.175
