;FLAVOR:Marlin
;TIME:218
;Filament used: 0.0963085m
;Layer height: 0.15
;MINX:100.851
;MINY:100.008
;MINZ:0.2
;MAXX:134.149
;MAXY:134.993
;MAXZ:1.85
;Generated with Cura_SteamEngine 4.1.0
M140 S65
M105
M190 S65
M104 S190
M105
M109 S190
M82 ;absolute extrusion mode
; Ender 3 Custom Start G-code
G28 ; Home all axes
G92 E0 ; Reset Extruder
G1 Z2.0 F3000 ; Move Z Axis up little to prevent scratching of Heat Bed
G1 X0.1 Y20 Z0.3 F5000.0 ; Move to start position
G1 X0.1 Y200.0 Z0.3 F1500.0 E15 ; Draw the first line
G1 X0.4 Y200.0 Z0.3 F5000.0 ; Move to side a little
G1 X0.4 Y20 Z0.3 F1500.0 E30 ; Draw the second line
G92 E0 ; Reset Extruder
G1 Z2.0 F3000 ; Move Z Axis up little to prevent scratching of Heat Bed
; End of custom start GCode
G92 E0
G92 E0
;LAYER_COUNT:12
;LAYER:0
M107
M204 S500
M205 X10 Y10
;MESH:con-ext.stl
G0 F2400 X121.031 Y117.756 Z0.2
;TYPE:WALL-INNER
G1 F1200 X121.621 Y118.786 E0.03948
G1 X130.482 Y134.146 E0.62927
G1 X130.136 Y134.347 E0.64258
G1 X129.963 Y134.447 E0.64923
G1 X129.863 Y134.274 E0.65352
G1 X129.725 Y134.034 E0.66273
G1 X120.345 Y117.796 E1.28644
G1 X101.451 Y117.798 E1.91485
G1 X101.251 Y117.798 E1.92151
G1 X101.251 Y117.598 E1.92581
G1 X101.251 Y117.399 E1.93243
G1 X101.251 Y117.199 E1.93908
G1 X101.451 Y117.199 E1.94339
G1 X120.464 Y117.2 E2.57577
G1 X129.867 Y100.728 E3.20661
G1 X129.966 Y100.555 E3.21324
G1 X130.139 Y100.654 E3.21753
G1 X130.311 Y100.753 E3.22413
G1 X130.484 Y100.853 E3.23077
G1 X130.385 Y101.026 E3.2374
G1 X120.887 Y117.489 E3.86956
G1 X121.038 Y117.756 E3.87976
G1 X121.031 Y117.756 E3.87999
G0 F2400 X120.945 Y117.706
G0 X122.695 Y117.743
G0 X122.685 Y117.552
G1 F1200 X122.694 Y117.175 E3.89253
G1 X133.749 Y117.175 E4.26023
G1 X133.749 Y117.756 E4.27955
G1 X122.885 Y117.756 E4.64089
G1 X122.884 Y117.756 E4.64092
G1 X122.681 Y117.756 E4.64767
G1 X122.684 Y117.553 E4.65202
G1 X122.685 Y117.552 E4.65207
G0 F2400 X122.276 Y117.952
;TYPE:WALL-OUTER
G1 F1200 X122.303 Y116.775 E4.69123
G1 X134.149 Y116.775 E5.08523
G1 X134.149 Y118.156 E5.13116
G1 X122.476 Y118.156 E5.5194
G1 X122.475 Y118.156 E5.51944
G1 X122.272 Y118.156 E5.52619
G1 X122.275 Y117.953 E5.53054
G1 X122.276 Y117.952 E5.53059
G0 F2400 X122.28 Y117.752
G0 X121.721 Y118.156
G1 F1200 X121.968 Y118.587 E5.54711
G1 X131.028 Y134.292 E6.15014
G1 X129.99 Y134.893 E6.19004
G1 X129.817 Y134.993 E6.19668
G1 X129.717 Y134.82 E6.20098
G1 X129.379 Y134.234 E6.22348
G1 X120.114 Y118.196 E6.83951
G1 X101.051 Y118.198 E7.47355
G1 X100.851 Y118.198 E7.4802
G1 X100.851 Y117.998 E7.48451
G1 X100.851 Y116.999 E7.51774
G1 X100.851 Y116.799 E7.52439
G1 X101.051 Y116.799 E7.5287
G1 X120.232 Y116.8 E8.16666
G1 X129.719 Y100.181 E8.80313
G1 X129.818 Y100.008 E8.80976
G1 X129.991 Y100.107 E8.81405
G1 X130.857 Y100.607 E8.84731
G1 X131.03 Y100.706 E8.85394
G1 X130.931 Y100.879 E8.85823
G1 X121.348 Y117.491 E9.49609
G1 X121.724 Y118.156 E9.5215
G1 X121.721 Y118.156 E9.5216
G0 F2400 X121.82 Y118.329
G0 X121.386 Y118.576
G0 X120.847 Y117.489
G0 X130.065 Y101.215
;TYPE:SKIN
G1 F1200 X129.893 Y101.043 E9.52969
G0 F2400 X129.688 Y101.404
G1 F1200 X129.859 Y101.575 E9.53773
G0 F2400 X129.652 Y101.933
G1 F1200 X129.482 Y101.763 E9.54573
G0 F2400 X129.276 Y102.123
G1 F1200 X129.445 Y102.292 E9.55368
G0 F2400 X129.238 Y102.651
G1 F1200 X129.071 Y102.483 E9.56156
G0 F2400 X128.865 Y102.844
G1 F1200 X129.031 Y103.009 E9.56934
G0 F2400 X128.824 Y103.368
G1 F1200 X128.66 Y103.204 E9.57705
G0 F2400 X128.454 Y103.564
G1 F1200 X128.617 Y103.727 E9.58472
G0 F2400 X128.41 Y104.086
G1 F1200 X128.248 Y103.924 E9.59234
G0 F2400 X128.043 Y104.284
G1 F1200 X128.203 Y104.444 E9.59987
G0 F2400 X127.996 Y104.803
G1 F1200 X127.837 Y104.644 E9.60735
G0 F2400 X127.632 Y105.004
G1 F1200 X127.789 Y105.162 E9.61475
G0 F2400 X127.583 Y105.521
G1 F1200 X127.427 Y105.365 E9.62209
G0 F2400 X127.221 Y105.725
G1 F1200 X127.376 Y105.88 E9.62938
G0 F2400 X127.168 Y106.238
G1 F1200 X127.015 Y106.085 E9.63658
G0 F2400 X126.809 Y106.445
G1 F1200 X126.962 Y106.597 E9.64375
G0 F2400 X126.604 Y106.805
G1 F1200 X126.755 Y106.956 E9.65086
G0 F2400 X126.548 Y107.314
G1 F1200 X126.398 Y107.165 E9.65789
G0 F2400 X126.193 Y107.525
G1 F1200 X126.341 Y107.673 E9.66485
G0 F2400 X125.987 Y107.885
G1 F1200 X126.134 Y108.032 E9.67176
G0 F2400 X125.782 Y108.246
G1 F1200 X125.927 Y108.39 E9.67856
G0 F2400 X125.576 Y108.605
G1 F1200 X125.72 Y108.75 E9.68536
G0 F2400 X125.37 Y108.965
G1 F1200 X125.513 Y109.108 E9.69208
G0 F2400 X125.165 Y109.326
G1 F1200 X125.306 Y109.467 E9.69872
G0 F2400 X124.959 Y109.686
G1 F1200 X125.099 Y109.826 E9.7053
G0 F2400 X124.754 Y110.046
G1 F1200 X124.892 Y110.184 E9.71179
G0 F2400 X124.548 Y110.406
G1 F1200 X124.685 Y110.543 E9.71824
G0 F2400 X124.343 Y110.766
G1 F1200 X124.479 Y110.902 E9.72463
G0 F2400 X124.137 Y111.126
G1 F1200 X124.271 Y111.261 E9.73096
G0 F2400 X123.931 Y111.486
G1 F1200 X124.065 Y111.62 E9.73726
G0 F2400 X123.726 Y111.846
G1 F1200 X123.858 Y111.978 E9.74347
G0 F2400 X123.52 Y112.207
G1 F1200 X123.651 Y112.337 E9.74961
G0 F2400 X123.315 Y112.567
G1 F1200 X123.444 Y112.696 E9.75568
G0 F2400 X123.109 Y112.927
G1 F1200 X123.237 Y113.055 E9.7617
G0 F2400 X122.904 Y113.287
G1 F1200 X123.03 Y113.413 E9.76763
G0 F2400 X122.698 Y113.647
G1 F1200 X122.823 Y113.772 E9.7735
G0 F2400 X122.492 Y114.007
G1 F1200 X122.616 Y114.131 E9.77934
G0 F2400 X122.287 Y114.367
G1 F1200 X122.409 Y114.489 E9.78508
G0 F2400 X122.081 Y114.728
G1 F1200 X122.202 Y114.848 E9.79074
G0 F2400 X121.876 Y115.087
G1 F1200 X121.995 Y115.207 E9.79636
G0 F2400 X121.67 Y115.447
G1 F1200 X121.788 Y115.565 E9.80192
G0 F2400 X121.465 Y115.808
G1 F1200 X121.582 Y115.925 E9.80742
G0 F2400 X121.259 Y116.168
G1 F1200 X121.374 Y116.283 E9.81283
G0 F2400 X121.053 Y116.528
G1 F1200 X121.167 Y116.642 E9.81819
G0 F2400 X120.848 Y116.888
G1 F1200 X120.961 Y117.001 E9.82351
G0 F2400 X120.643 Y117.248
G1 F1200 X120.754 Y117.359 E9.82873
G0 F2400 X120.454 Y117.626
G1 F1200 X121.141 Y118.313 E9.86104
G0 F2400 X121.228 Y118.965
G1 F1200 X121.907 Y119.644 E9.89298
G0 F2400 X122.002 Y120.305
G1 F1200 X122.678 Y120.981 E9.92478
G0 F2400 X122.776 Y121.644
G1 F1200 X123.45 Y122.318 E9.95648
G0 F2400 X123.55 Y122.984
G1 F1200 X124.221 Y123.656 E9.98806
G0 F2400 X124.324 Y124.324
G1 F1200 X124.993 Y124.993 E10.01953
G0 F2400 X125.098 Y125.664
G1 F1200 X125.764 Y126.33 E10.05086
G0 F2400 X125.872 Y127.003
G1 F1200 X126.536 Y127.668 E10.08211
G0 F2400 X126.646 Y128.343
G1 F1200 X127.308 Y129.005 E10.11325
G0 F2400 X127.419 Y129.682
G1 F1200 X128.079 Y130.342 E10.1443
G0 F2400 X128.194 Y131.022
G1 F1200 X128.851 Y131.679 E10.1752
G0 F2400 X128.967 Y132.361
G1 F1200 X129.622 Y133.016 E10.20601
G0 F2400 X129.741 Y133.701
G1 F1200 X130.162 Y134.121 E10.22579
G0 F2400 X120.445 Y117.616
G1 F1200 X120.208 Y117.38 E10.23691
G0 F2400 X119.879 Y117.616
G1 F1200 X119.643 Y117.38 E10.24801
G0 F2400 X119.313 Y117.616
G1 F1200 X119.077 Y117.38 E10.25911
G0 F2400 X118.747 Y117.616
G1 F1200 X118.511 Y117.38 E10.27022
G0 F2400 X118.182 Y117.616
G1 F1200 X117.946 Y117.38 E10.28132
G0 F2400 X117.616 Y117.616
G1 F1200 X117.38 Y117.38 E10.29242
G0 F2400 X117.05 Y117.616
G1 F1200 X116.814 Y117.38 E10.30352
G0 F2400 X116.485 Y117.616
G1 F1200 X116.249 Y117.38 E10.31462
G0 F2400 X115.919 Y117.616
G1 F1200 X115.683 Y117.38 E10.32572
G0 F2400 X115.353 Y117.616
G1 F1200 X115.117 Y117.38 E10.33682
G0 F2400 X114.788 Y117.616
G1 F1200 X114.552 Y117.38 E10.34792
G0 F2400 X114.222 Y117.616
G1 F1200 X113.985 Y117.379 E10.35907
G0 F2400 X113.656 Y117.616
G1 F1200 X113.419 Y117.379 E10.37022
G0 F2400 X113.091 Y117.616
G1 F1200 X112.854 Y117.379 E10.38136
G0 F2400 X112.525 Y117.616
G1 F1200 X112.288 Y117.379 E10.39251
G0 F2400 X111.959 Y117.616
G1 F1200 X111.722 Y117.379 E10.40366
G0 F2400 X111.394 Y117.616
G1 F1200 X111.157 Y117.379 E10.41481
G0 F2400 X110.828 Y117.616
G1 F1200 X110.591 Y117.379 E10.42595
G0 F2400 X110.262 Y117.616
G1 F1200 X110.025 Y117.379 E10.4371
G0 F2400 X109.697 Y117.616
G1 F1200 X109.46 Y117.379 E10.44825
G0 F2400 X109.131 Y117.616
G1 F1200 X108.894 Y117.379 E10.4594
G0 F2400 X108.565 Y117.616
G1 F1200 X108.328 Y117.379 E10.47055
G0 F2400 X107.999 Y117.616
G1 F1200 X107.762 Y117.379 E10.48169
G0 F2400 X107.434 Y117.616
G1 F1200 X107.196 Y117.379 E10.49286
G0 F2400 X106.868 Y117.616
G1 F1200 X106.63 Y117.379 E10.50404
G0 F2400 X106.302 Y117.616
G1 F1200 X106.065 Y117.379 E10.51518
G0 F2400 X105.737 Y117.616
G1 F1200 X105.499 Y117.379 E10.52635
G0 F2400 X105.171 Y117.616
G1 F1200 X104.933 Y117.379 E10.53753
G0 F2400 X104.605 Y117.616
G1 F1200 X104.368 Y117.379 E10.54867
G0 F2400 X104.04 Y117.616
G1 F1200 X103.802 Y117.379 E10.55985
G0 F2400 X103.474 Y117.616
G1 F1200 X103.236 Y117.379 E10.57102
G0 F2400 X102.908 Y117.616
G1 F1200 X102.671 Y117.379 E10.58216
G0 F2400 X102.343 Y117.616
G1 F1200 X102.105 Y117.379 E10.59334
G0 F2400 X101.777 Y117.616
G1 F1200 X101.539 Y117.379 E10.60451
G0 F2400 X121.021 Y117.746
G0 X122.695 Y117.743
G0 X123.011 Y117.354
G1 F1200 X123.233 Y117.576 E10.61495
G0 F2400 X123.577 Y117.354
G1 F1200 X123.798 Y117.576 E10.62537
G0 F2400 X124.143 Y117.354
G1 F1200 X124.364 Y117.576 E10.63579
G0 F2400 X124.708 Y117.354
G1 F1200 X124.93 Y117.576 E10.64623
G0 F2400 X125.274 Y117.354
G1 F1200 X125.495 Y117.576 E10.65665
G0 F2400 X125.84 Y117.354
G1 F1200 X126.061 Y117.576 E10.66707
G0 F2400 X126.405 Y117.354
G1 F1200 X126.627 Y117.576 E10.67751
G0 F2400 X126.971 Y117.354
G1 F1200 X127.192 Y117.576 E10.68793
G0 F2400 X127.537 Y117.354
G1 F1200 X127.758 Y117.576 E10.69835
G0 F2400 X128.103 Y117.354
G1 F1200 X128.324 Y117.576 E10.70876
G0 F2400 X128.668 Y117.354
G1 F1200 X128.89 Y117.576 E10.71921
G0 F2400 X129.234 Y117.354
G1 F1200 X129.455 Y117.576 E10.72963
G0 F2400 X129.8 Y117.354
G1 F1200 X130.021 Y117.576 E10.74004
G0 F2400 X130.365 Y117.354
G1 F1200 X130.587 Y117.576 E10.75049
G0 F2400 X130.931 Y117.354
G1 F1200 X131.152 Y117.576 E10.7609
G0 F2400 X131.497 Y117.354
G1 F1200 X131.718 Y117.576 E10.77132
G0 F2400 X132.062 Y117.354
G1 F1200 X132.284 Y117.576 E10.78177
G0 F2400 X132.628 Y117.354
G1 F1200 X132.849 Y117.576 E10.79218
G0 F2400 X133.194 Y117.354
G1 F1200 X133.415 Y117.576 E10.8026
G0 F2400 X133.415 Y117.575
;MESH:NONMESH
G0 X122.71 Y117.335
G0 X121.392 Y116.576
G0 X120.514 Y117.286
G0 X120.464 Y117.2
;TIME_ELAPSED:29.040875
;LAYER:1
M140 S65
M106 S255
;MESH:con-ext.stl
G0 F4800 X120.464 Y117.2 Z0.35
;TYPE:WALL-INNER
G1 F3000 X129.867 Y100.728 E11.27573
G1 X129.966 Y100.555 E11.28071
G1 X130.139 Y100.654 E11.28392
G1 X130.311 Y100.753 E11.28887
G1 X130.484 Y100.853 E11.29386
G1 X130.385 Y101.026 E11.29883
G1 X120.9 Y117.468 E11.77233
G1 X121.298 Y118.221 E11.79358
G1 X121.622 Y118.786 E11.80982
G1 X130.482 Y134.146 E12.25215
G1 X130.136 Y134.347 E12.26214
G1 X129.963 Y134.447 E12.26712
G1 X129.863 Y134.274 E12.27034
G1 X120.345 Y117.796 E12.74503
G1 X101.451 Y117.798 E13.21634
G1 X101.251 Y117.798 E13.22133
G1 X101.251 Y117.598 E13.22456
G1 X101.251 Y117.399 E13.22952
G1 X101.251 Y117.199 E13.23451
G1 X101.451 Y117.199 E13.23774
G1 X120.464 Y117.2 E13.71203
G0 F4800 X120.514 Y117.286
G0 X121.281 Y118.23
G0 X122.695 Y117.743
G0 X122.685 Y117.552
G1 F3000 X122.694 Y117.175 E13.72143
G1 X133.749 Y117.175 E13.9972
G1 X133.749 Y117.756 E14.01169
G1 X122.885 Y117.756 E14.2827
G1 X122.884 Y117.756 E14.28272
G1 X122.681 Y117.756 E14.28779
G1 X122.684 Y117.553 E14.29105
G1 X122.685 Y117.552 E14.29108
G0 F4800 X122.276 Y117.952
;TYPE:WALL-OUTER
G1 F1800 X122.302 Y116.775 E14.32045
G1 X134.149 Y116.775 E14.61598
G1 X134.149 Y118.156 E14.65042
G1 X122.476 Y118.156 E14.94161
G1 X122.475 Y118.156 E14.94163
G1 X122.272 Y118.156 E14.9467
G1 X122.275 Y117.953 E14.94996
G1 X122.276 Y117.952 E14.94999
G0 F4800 X122.28 Y117.752
G0 X122.752 Y117.687
G0 X121.385 Y116.589
G0 X120.575 Y117.169
G0 X120.232 Y116.8
G1 F1800 X129.719 Y100.181 E15.42735
G1 X129.818 Y100.008 E15.43232
G1 X129.991 Y100.107 E15.43554
G1 X130.857 Y100.607 E15.46048
G1 X131.03 Y100.706 E15.46546
G1 X130.931 Y100.879 E15.46867
G1 X121.357 Y117.477 E15.94665
G1 X121.648 Y118.028 E15.9622
G1 X121.969 Y118.587 E15.97828
G1 X131.028 Y134.292 E16.43054
G1 X129.99 Y134.893 E16.46046
G1 X129.817 Y134.993 E16.46545
G1 X129.717 Y134.82 E16.46866
G1 X120.114 Y118.196 E16.94757
G1 X101.051 Y118.198 E17.4231
G1 X100.851 Y118.198 E17.42809
G1 X100.851 Y117.998 E17.43132
G1 X100.851 Y116.999 E17.45624
G1 X100.851 Y116.799 E17.46123
G1 X101.051 Y116.799 E17.46446
G1 X120.232 Y116.8 E17.94293
G0 F4800 X120.331 Y116.627
G0 X120.763 Y116.875
G0 X101.431 Y117.488
;TYPE:SKIN
G1 F1500 X101.541 Y117.378 E17.94681
G0 F4800 X101.868 Y117.617
G1 F1500 X102.107 Y117.378 E17.95524
G0 F4800 X102.434 Y117.617
G1 F1500 X102.673 Y117.378 E17.96367
G0 F4800 X103 Y117.617
G1 F1500 X103.239 Y117.378 E17.9721
G0 F4800 X103.565 Y117.617
G1 F1500 X103.804 Y117.378 E17.98053
G0 F4800 X104.131 Y117.617
G1 F1500 X104.37 Y117.378 E17.98897
G0 F4800 X104.697 Y117.617
G1 F1500 X104.936 Y117.378 E17.9974
G0 F4800 X105.262 Y117.617
G1 F1500 X105.501 Y117.378 E18.00583
G0 F4800 X105.828 Y117.617
G1 F1500 X106.067 Y117.378 E18.01426
G0 F4800 X106.394 Y117.617
G1 F1500 X106.633 Y117.378 E18.02269
G0 F4800 X106.959 Y117.617
G1 F1500 X107.198 Y117.378 E18.03112
G0 F4800 X107.525 Y117.617
G1 F1500 X107.764 Y117.378 E18.03955
G0 F4800 X108.091 Y117.617
G1 F1500 X108.329 Y117.379 E18.04795
G0 F4800 X108.656 Y117.617
G1 F1500 X108.895 Y117.379 E18.05636
G0 F4800 X109.222 Y117.617
G1 F1500 X109.46 Y117.379 E18.06476
G0 F4800 X109.788 Y117.617
G1 F1500 X110.026 Y117.379 E18.07316
G0 F4800 X110.353 Y117.617
G1 F1500 X110.592 Y117.379 E18.08157
G0 F4800 X110.919 Y117.617
G1 F1500 X111.157 Y117.379 E18.08997
G0 F4800 X111.485 Y117.616
G1 F1500 X111.723 Y117.379 E18.09834
G0 F4800 X112.051 Y117.616
G1 F1500 X112.289 Y117.379 E18.10672
G0 F4800 X112.617 Y117.616
G1 F1500 X112.854 Y117.379 E18.11508
G0 F4800 X113.183 Y117.616
G1 F1500 X113.42 Y117.379 E18.12344
G0 F4800 X113.748 Y117.616
G1 F1500 X113.986 Y117.379 E18.13182
G0 F4800 X114.314 Y117.616
G1 F1500 X114.551 Y117.379 E18.14018
G0 F4800 X114.88 Y117.616
G1 F1500 X115.116 Y117.379 E18.14853
G0 F4800 X115.445 Y117.616
G1 F1500 X115.682 Y117.379 E18.15689
G0 F4800 X116.011 Y117.616
G1 F1500 X116.248 Y117.379 E18.16525
G0 F4800 X116.577 Y117.616
G1 F1500 X116.814 Y117.379 E18.17361
G0 F4800 X117.142 Y117.616
G1 F1500 X117.379 Y117.379 E18.18197
G0 F4800 X117.708 Y117.616
G1 F1500 X117.945 Y117.379 E18.19033
G0 F4800 X118.274 Y117.616
G1 F1500 X118.511 Y117.379 E18.19869
G0 F4800 X118.839 Y117.616
G1 F1500 X119.076 Y117.379 E18.20705
G0 F4800 X119.405 Y117.616
G1 F1500 X119.642 Y117.379 E18.21541
G0 F4800 X119.971 Y117.616
G1 F1500 X120.208 Y117.379 E18.22377
G0 F4800 X120.481 Y117.671
G1 F1500 X120.699 Y117.453 E18.23146
G0 F4800 X120.887 Y117.831
G1 F1500 X120.688 Y118.03 E18.23848
G0 F4800 X120.895 Y118.389
G1 F1500 X121.082 Y118.202 E18.24508
G0 F4800 X121.286 Y118.564
G1 F1500 X121.102 Y118.747 E18.25156
G0 F4800 X121.309 Y119.106
G1 F1500 X121.493 Y118.922 E18.25805
G0 F4800 X121.7 Y119.281
G1 F1500 X121.517 Y119.464 E18.2645
G0 F4800 X121.724 Y119.823
G1 F1500 X121.907 Y119.64 E18.27096
G0 F4800 X122.113 Y119.999
G1 F1500 X121.931 Y120.181 E18.27738
G0 F4800 X122.138 Y120.54
G1 F1500 X122.32 Y120.358 E18.2838
G0 F4800 X122.528 Y120.716
G1 F1500 X122.345 Y120.898 E18.29024
G0 F4800 X122.552 Y121.257
G1 F1500 X122.734 Y121.075 E18.29666
G0 F4800 X122.941 Y121.434
G1 F1500 X122.76 Y121.616 E18.30306
G0 F4800 X122.967 Y121.974
G1 F1500 X123.149 Y121.792 E18.30948
G0 F4800 X123.355 Y122.151
G1 F1500 X123.174 Y122.333 E18.31588
G0 F4800 X123.38 Y122.692
G1 F1500 X123.562 Y122.51 E18.3223
G0 F4800 X123.769 Y122.868
G1 F1500 X123.588 Y123.05 E18.32871
G0 F4800 X123.795 Y123.409
G1 F1500 X123.976 Y123.228 E18.33509
G0 F4800 X124.183 Y123.586
G1 F1500 X124.002 Y123.767 E18.34148
G0 F4800 X124.209 Y124.126
G1 F1500 X124.39 Y123.945 E18.34786
G0 F4800 X124.597 Y124.304
G1 F1500 X124.416 Y124.484 E18.35423
G0 F4800 X124.624 Y124.843
G1 F1500 X124.804 Y124.662 E18.3606
G0 F4800 X125.01 Y125.022
G1 F1500 X124.831 Y125.201 E18.36691
